dist/icons/svgs/temperature-half-solid.svg

<svg xmlns="http://www.w3.org/2000/svg" width="24" height="24" fill="currentcolor" class="icon-temperature-half-solid" viewBox="0 0 24 24">
  <path d="M12.5 4.5C11.4453 4.5 10.625 5.35938 10.625 6.375V12.8203C10.625 13.4844 10.3125 14.0703 10 14.4609C9.60938 15.0078 9.375 15.6719 9.375 16.375C9.375 18.1328 10.7422 19.5 12.5 19.5C14.2188 19.5 15.625 18.1328 15.625 16.375C15.625 15.6719 15.3516 15.0078 14.9609 14.5C14.6484 14.0703 14.375 13.4844 14.375 12.8203V6.375C14.375 5.35938 13.5156 4.5 12.5 4.5ZM8.125 6.375C8.125 3.99219 10.0781 2 12.5 2C14.8828 2 16.875 3.99219 16.875 6.375V12.8203C16.875 12.8203 16.875 12.8203 16.875 12.8594C16.875 12.8594 16.9141 12.8984 16.9141 12.9375C17.6562 13.9141 18.125 15.0859 18.125 16.375C18.125 19.5 15.5859 22 12.5 22C9.375 22 6.875 19.5 6.875 16.375C6.875 15.0859 7.30469 13.9141 8.04688 12.9375C8.08594 12.8984 8.08594 12.8594 8.08594 12.8594C8.08594 12.8203 8.125 12.8203 8.125 12.8203V6.375ZM14.375 16.375C14.375 17.4297 13.5156 18.25 12.5 18.25C11.4453 18.25 10.625 17.4297 10.625 16.375C10.625 15.5938 11.1328 14.8906 11.875 14.6172V10.125C11.875 9.8125 12.1484 9.5 12.5 9.5C12.8125 9.5 13.125 9.8125 13.125 10.125V14.6172C13.8281 14.8906 14.375 15.5938 14.375 16.375Z"/>
</svg>

<svg xmlns="http://www.w3.org/2000/svg" width="24" height="24" fill="currentColor" class="icon-temperature-half-solid" viewBox="0 0 24 24">
  <path d="M12.5 4.5c-1.055 0-1.875.86-1.875 1.875v6.445c0 .664-.312 1.25-.625 1.64a3.3 3.3 0 0 0-.625 1.915c0 1.758 1.367 3.125 3.125 3.125a3.11 3.11 0 0 0 3.125-3.125c0-.703-.273-1.367-.664-1.875-.313-.43-.586-1.016-.586-1.68V6.375c0-1.016-.86-1.875-1.875-1.875M8.125 6.375C8.125 3.992 10.078 2 12.5 2c2.383 0 4.375 1.992 4.375 4.375v6.485s.04.038.04.078c.741.976 1.21 2.148 1.21 3.437A5.626 5.626 0 0 1 12.5 22a5.6 5.6 0 0 1-5.625-5.625c0-1.29.43-2.46 1.172-3.437.039-.04.039-.079.039-.079 0-.039.039-.039.039-.039zm6.25 10c0 1.055-.86 1.875-1.875 1.875a1.85 1.85 0 0 1-1.875-1.875c0-.781.508-1.484 1.25-1.758v-4.492c0-.312.273-.625.625-.625.313 0 .625.313.625.625v4.492c.703.274 1.25.977 1.25 1.758"/>
</svg>
